X: 11671
Q: "Pompously."
M: C
L: 1/8
K: C
|:\
e2e>e e2dd | c2c>c c2BB |\
d2(cd) e2(dc) | d2(3(def) e2d2 |\
(3(cBc) (3(dcB) A2B2 | A2A>A A2z2 ::\
e2B>B B2c2 | (B>A)(B>c) B2c2 |
d2c2 B2A2 | B2B>B B2(cd) |\
e2(cd) e2(f>d) | e2(c>d) e2(f>d) |\
(e>c)(d>B) (3(cBA) (3(edc) | B2B>B B2E2 |\
(3(eag) (3(fed) c2B2 | A2A>A A2z2 :|


